X: 13
T:Bovaglie's Plaid
M:3/4
L:1/8
Q:60
C:Alisdair Fraser
S:Transcibed from "The Road North" by S. Cruzen
R:Air
K:A
A2|:F4 EC|E4 F2|A4B2|c4Bc|d4B2|e4c2|B4A2|FA4 A|!
F4 EC|E4 F2|A4B2|c4d2|e4cA|G d4 G|A6|[1 A4 A2:|[2(e4-(3efg)||!
(a4 (3fgf) |e c3 A2|f2d2A2|e2c2A2|C3EA2|c2e2a2|{cd}c3BB2|B2(e2-(3efg)|!
(a4 (3fgf)|e c3 A2|(F2>G2)A2|(E2>G2)A2|(D2>F2)A2|Ed3 G2|A6|(e4-(3efg)|!
(a4 (3fgf)|e c3 A2|f2d2A2|e2c2A2|(a4 (3fgf)|e2 c2 A2|(B3 c B2)|(B4 A)G|!
(F2>G2)A2|(E2>G2)A2|(D2>F2)A2|(C3B,)A,|B,E3DB,|G,D3 G,2|A,6|A,6|]
